assets/img/braze_icons/message-dots-circle.svg

<svg fill="none" height="24" viewBox="0 0 24 24" width="24" xmlns="http://www.w3.org/2000/svg"><path clip-rule="evenodd" d="m12 2c-5.52285 0-10 4.47715-10 10 0 1.3283.25952 2.5985.73156 3.7608.04263.105.06716.1656.08396.2103l.00511.0138-.00063.0048c-.005.0369-.01328.0872-.02929.1833l-.59777 3.5866c-.02682.1606-.05683.3403-.06861.4964-.01285.1701-.01732.4409.1054.727.15171.3537.43357.6356.78727.7873.28612.1227.55686.1182.72704.1054.15609-.0118.33581-.0418.49645-.0686l3.58656-.5978c.09604-.016.14634-.0243.18325-.0293l.00475-.0006.01382.0051c.04475.0168.10536.0413.21034.0839 1.16229.4721 2.43249.7316 3.76079.7316 5.5228 0 10-4.4772 10-10 0-5.52285-4.4772-10-10-10zm-6 10c0-.8284.67157-1.5 1.5-1.5s1.5.6716 1.5 1.5-.67157 1.5-1.5 1.5-1.5-.6716-1.5-1.5zm4.5 0c0-.8284.6716-1.5 1.5-1.5s1.5.6716 1.5 1.5-.6716 1.5-1.5 1.5-1.5-.6716-1.5-1.5zm6-1.5c-.8284 0-1.5.6716-1.5 1.5s.6716 1.5 1.5 1.5 1.5-.6716 1.5-1.5-.6716-1.5-1.5-1.5z" fill="#801ed7" fill-rule="evenodd"/></svg>

<svg width="24" height="24" viewBox="0 0 24 24" fill="none" xmlns="http://www.w3.org/2000/svg">
<path fill-rule="evenodd" clip-rule="evenodd" d="M12 2C6.47715 2 2 6.47715 2 12C2 13.3283 2.25952 14.5985 2.73156 15.7608C2.77419 15.8658 2.79872 15.9264 2.81552 15.9711L2.82063 15.9849L2.82 15.9897C2.815 16.0266 2.80672 16.0769 2.79071 16.173L2.19294 19.7596C2.16612 19.9202 2.13611 20.0999 2.12433 20.256C2.11148 20.4261 2.10701 20.6969 2.22973 20.983C2.38144 21.3367 2.6633 21.6186 3.017 21.7703C3.30312 21.893 3.57386 21.8885 3.74404 21.8757C3.90013 21.8639 4.07985 21.8339 4.24049 21.8071L7.82705 21.2093C7.92309 21.1933 7.97339 21.185 8.0103 21.18L8.01505 21.1794L8.02887 21.1845C8.07362 21.2013 8.13423 21.2258 8.23921 21.2684C9.4015 21.7405 10.6717 22 12 22C17.5228 22 22 17.5228 22 12C22 6.47715 17.5228 2 12 2ZM6 12C6 11.1716 6.67157 10.5 7.5 10.5C8.32843 10.5 9 11.1716 9 12C9 12.8284 8.32843 13.5 7.5 13.5C6.67157 13.5 6 12.8284 6 12ZM10.5 12C10.5 11.1716 11.1716 10.5 12 10.5C12.8284 10.5 13.5 11.1716 13.5 12C13.5 12.8284 12.8284 13.5 12 13.5C11.1716 13.5 10.5 12.8284 10.5 12ZM16.5 10.5C15.6716 10.5 15 11.1716 15 12C15 12.8284 15.6716 13.5 16.5 13.5C17.3284 13.5 18 12.8284 18 12C18 11.1716 17.3284 10.5 16.5 10.5Z" fill="#801ED7"/>
</svg>
